X:40
T:Up the Raw
Z:Jack Campin, http://www.campin.me.uk/
S:Northumbrian Minstrelsy
M:6/8
L:1/8
K:Eb
 E2      G  A3     |G2  B F3  |\
(E`F)    G (A`B) c |B2  G E3  |
 E E     G  A A2   |G G B F F2|\
 E F     G  A B  c |B2  G E3 |]
P:Verse
_d d     B (c2   e)|F F E F A2|\
_d d     B  c2   e |G2  B E3  |
_d d     B  c2   e |F F E F A2|\
_d d/ d/ B  c2   e |G G B E3 |]

